build/img/icons/deephouse-logo.svg

<svg width="168" height="59" viewBox="0 0 168 59" fill="none" xmlns="http://www.w3.org/2000/svg">
<path d="M0.760742 30.8187H6.3709V13.8177C6.3709 12.0719 6.06647 9.24529 6.06647 9.24529H6.15345C6.15345 9.24529 7.54512 12.0719 8.71934 13.8177L20.418 30.8187H25.9847V1.30594H20.418V18.3485C20.418 20.0944 20.7225 22.9209 20.7225 22.9209H20.6355C20.6355 22.9209 19.2003 20.0944 18.0696 18.3485L6.3709 1.30594H0.760742V30.8187Z" fill="white"/>
<path d="M31.6788 15.8545C31.6788 24.5421 38.2892 31.3175 47.6395 31.3175C56.9897 31.3175 63.6001 24.5421 63.6001 15.8545C63.6001 7.41633 56.9897 0.807129 47.6395 0.807129C38.2892 0.807129 31.6788 7.41633 31.6788 15.8545ZM37.4629 15.8545C37.4629 10.1182 41.7249 5.71207 47.6395 5.71207C53.554 5.71207 57.816 10.1182 57.816 15.8545C57.816 21.8402 53.554 26.4126 47.6395 26.4126C41.7249 26.4126 37.4629 21.8402 37.4629 15.8545Z" fill="white"/>
<path d="M76.1965 30.8187H82.0241L93.1574 1.30594H87.1993L80.328 20.5516C79.7626 22.2559 79.1538 24.8746 79.1538 24.8746H79.0668C79.0668 24.8746 78.4579 22.2559 77.8926 20.5516L71.1082 1.30594H65.0631L76.1965 30.8187Z" fill="white"/>
<path d="M97.1258 30.8187H102.736V1.30594H97.1258V30.8187Z" fill="white"/>
<path d="M108.424 15.9376C108.424 24.6252 114.686 31.3175 124.384 31.3175C129.907 31.3175 133.865 29.1145 136.518 26.5373L133.561 22.6715C131.212 24.8746 127.907 26.4126 124.602 26.4126C117.904 26.4126 114.208 21.383 114.208 15.8545C114.208 10.4092 117.774 5.71207 124.558 5.71207C127.559 5.71207 130.821 7.04223 132.995 8.82962L135.692 4.83916C132.691 2.05415 128.342 0.807129 124.297 0.807129C114.991 0.807129 108.424 7.37477 108.424 15.9376Z" fill="white"/>
<path d="M141.337 30.8187H146.948V18.4317H161.082V30.8187H166.648V1.30594H161.082V13.8177H146.948V1.30594H141.337V30.8187Z" fill="white"/>
<path d="M52.9594 13.2787C52.8482 13.2787 52.7681 13.2787 52.6881 13.2787C51.8787 13.2787 51.0737 13.2757 50.2643 13.2787C49.6106 13.2817 49.2459 13.7203 49.5794 14.0959C49.7395 14.2731 49.9975 14.3392 50.2999 14.3392C51.1004 14.3392 51.9009 14.3392 52.7014 14.3392C52.7815 14.3392 52.8615 14.3392 52.9549 14.3392C52.9549 14.814 52.9549 15.2736 52.9549 15.7423C52.6836 15.7423 52.4257 15.7423 52.1678 15.7423C51.554 15.7423 50.9359 15.7423 50.3221 15.7423C49.824 15.7423 49.4594 15.9647 49.446 16.2711C49.4327 16.5716 49.8018 16.8029 50.3132 16.8029C51.1004 16.8059 51.8831 16.8029 52.6703 16.8029C52.7592 16.8029 52.8437 16.8029 52.9594 16.8029C52.9638 16.869 52.9727 16.9201 52.9727 16.9742C52.9727 17.2987 52.9638 17.6262 52.9772 17.9506C52.9816 18.0828 52.9327 18.1339 52.7237 18.1309C51.9232 18.1219 51.1226 18.1249 50.3221 18.1279C49.8418 18.1279 49.5527 18.2871 49.4682 18.5846C49.3971 18.84 49.6773 19.1254 50.0553 19.1644C50.1798 19.1795 50.3043 19.1825 50.4333 19.1825C51.2027 19.1855 51.9765 19.1855 52.7459 19.1825C52.9238 19.1825 52.9683 19.2185 52.9594 19.3387C52.8927 20.3302 52.3056 21.1534 51.2294 21.8204C49.7306 22.7488 47.9784 22.9771 46.0438 22.6256C45.0743 22.4483 44.2916 22.0608 43.6201 21.562C42.7662 20.9281 42.3303 20.186 42.2681 19.3327C42.2592 19.2065 42.3215 19.1825 42.4904 19.1825C43.3132 19.1855 44.1359 19.1855 44.9587 19.1855C45.2077 19.1855 45.4523 19.1705 45.6347 19.0383C45.8482 18.885 45.9371 18.7048 45.8348 18.5005C45.737 18.3052 45.5324 18.182 45.23 18.1459C45.1277 18.1339 45.0254 18.1309 44.9187 18.1309C44.1093 18.1309 43.3043 18.1249 42.4949 18.1339C42.2903 18.1369 42.2458 18.0918 42.2503 17.9627C42.2636 17.5871 42.2547 17.2115 42.2547 16.821C42.3481 16.8179 42.4326 16.8089 42.5216 16.8089C43.3577 16.8089 44.1982 16.8119 45.0343 16.8059C45.6302 16.8029 46.0038 16.4724 45.8393 16.1119C45.737 15.8896 45.4212 15.7453 45.0121 15.7423C44.1804 15.7393 43.3532 15.7423 42.5216 15.7423C42.4415 15.7423 42.3615 15.7423 42.2725 15.7423C42.2725 15.2736 42.2725 14.82 42.2725 14.3453C42.3615 14.3423 42.446 14.3362 42.5305 14.3362C43.3755 14.3362 44.2204 14.3392 45.0654 14.3332C45.6391 14.3272 46.0083 13.9907 45.8393 13.6392C45.737 13.4259 45.4212 13.2757 45.0476 13.2757C44.216 13.2727 43.3888 13.2757 42.5572 13.2757C42.4771 13.2757 42.3971 13.2757 42.277 13.2757C42.3215 12.161 43.0108 11.2747 44.2516 10.5686C46.0083 9.57714 48.4987 9.53808 50.2065 10.2171C51.9098 10.8961 52.8615 11.9026 52.9594 13.2787Z" fill="white"/>
<rect x="45.1494" y="29.9872" width="5.50868" height="6.92789" fill="white"/>
<path fill-rule="evenodd" clip-rule="evenodd" d="M0.5 56.568C0.5 57.8046 1.50246 58.8071 2.73906 58.8071L165.261 58.8071C166.498 58.8071 167.5 57.8046 167.5 56.568V39.154C167.5 37.9174 166.498 36.915 165.261 36.915L2.73906 36.915C1.50246 36.915 0.5 37.9174 0.5 39.154V56.568ZM79.0234 53.2145C75.7423 53.2145 73.4226 50.8369 73.4226 47.7883C73.4226 44.8272 75.7423 42.5079 79.0234 42.5079C82.3046 42.5079 84.6243 44.8272 84.6243 47.7883C84.6243 50.8369 82.3046 53.2145 79.0234 53.2145ZM79.0234 44.2291C76.9479 44.2291 75.4523 45.7753 75.4523 47.7883C75.4523 49.8888 76.9479 51.4933 79.0234 51.4933C81.099 51.4933 82.5946 49.8888 82.5946 47.7883C82.5946 45.7753 81.099 44.2291 79.0234 44.2291ZM13.8612 53.0395H10.168V42.683H13.8612C17.2034 42.683 19.3857 44.5792 19.3857 47.8466C19.3857 51.114 17.2034 53.0395 13.8612 53.0395ZM12.1367 44.3021V51.4204H13.7544C15.952 51.4204 17.356 50.1805 17.356 47.8466C17.356 45.5419 15.9214 44.3021 13.7544 44.3021H12.1367ZM29.9817 53.0395H23.2515V42.683H29.7375V44.3021H25.2202V47.0152H28.8676V48.6343H25.2202V51.4204H29.9817V53.0395ZM33.7567 53.0395H40.4869V51.4204H35.7254V48.6343H39.3728V47.0152H35.7254V44.3021H40.2427V42.683H33.7567V53.0395ZM46.2305 53.0395H44.2619V42.683H48.4434C50.4732 42.683 51.8925 44.0395 51.8925 46.0525C51.8925 48.0654 50.4732 49.4657 48.4434 49.4657H46.2305V53.0395ZM46.2305 44.3021V47.832H48.0772C49.2217 47.832 49.8932 47.1319 49.8932 46.0525C49.8932 44.9876 49.2217 44.3021 48.1077 44.3021H46.2305ZM60.7267 53.0395H62.6954V48.6927H67.6553V53.0395H69.6087V42.683H67.6553V47.0735H62.6954V42.683H60.7267V53.0395ZM88.3215 49.3199C88.3215 51.6392 90.0766 53.2145 92.7015 53.2145C95.3112 53.2145 97.051 51.6392 97.051 49.3199V42.683H95.0823V49.3053C95.0823 50.7056 94.1361 51.4933 92.6863 51.4933C91.2364 51.4933 90.2903 50.7056 90.2903 49.3053V42.683H88.3215V49.3199ZM104.308 53.2145C102.965 53.2145 101.577 52.7332 100.6 51.7996L101.668 50.3847C102.309 50.939 103.347 51.4787 104.354 51.4787C105.331 51.4787 105.941 50.9973 105.941 50.2972C105.941 49.4333 104.969 49.027 103.878 48.5709C102.481 47.9873 100.89 47.3222 100.89 45.5128C100.89 43.6894 102.477 42.5079 104.583 42.5079C105.712 42.5079 106.903 42.8726 107.757 43.6165L106.887 45.1481C106.292 44.6376 105.361 44.2437 104.507 44.2437C103.515 44.2437 102.858 44.7105 102.858 45.4252C102.858 46.2593 103.806 46.639 104.881 47.0695C106.287 47.6327 107.91 48.2828 107.91 50.1513C107.91 51.8288 106.628 53.2145 104.308 53.2145ZM111.704 53.0395H118.435V51.4204H113.673V48.6343H117.321V47.0152H113.673V44.3021H118.19V42.683H111.704V53.0395ZM130.786 53.2145C129.443 53.2145 128.055 52.7332 127.078 51.7996L128.146 50.3847C128.787 50.939 129.825 51.4787 130.832 51.4787C131.809 51.4787 132.419 50.9973 132.419 50.2972C132.419 49.4333 131.447 49.027 130.356 48.5709C128.959 47.9873 127.368 47.3222 127.368 45.5128C127.368 43.6894 128.955 42.5079 131.061 42.5079C132.19 42.5079 133.381 42.8726 134.235 43.6165L133.366 45.1481C132.77 44.6376 131.839 44.2437 130.985 44.2437C129.993 44.2437 129.337 44.7105 129.337 45.4252C129.337 46.2593 130.285 46.639 131.359 47.0695C132.765 47.6327 134.388 48.2828 134.388 50.1513C134.388 51.8288 133.106 53.2145 130.786 53.2145ZM136.888 53.0395H138.902L139.818 50.3847H143.618L144.549 53.0395H146.564L142.764 42.683H140.688L136.888 53.0395ZM140.306 48.8531L141.283 46.0816C141.466 45.4982 141.71 44.4771 141.71 44.4771H141.741C141.741 44.4771 141.985 45.4982 142.168 46.0816L143.13 48.8531H140.306ZM150.904 53.0395H148.721L152.079 47.7883L148.843 42.683H151.087L152.582 45.221C152.918 45.8191 153.254 46.4901 153.254 46.4901H153.284C153.284 46.4901 153.59 45.8337 153.956 45.221L155.467 42.683H157.71L154.46 47.7883L157.832 53.0395H155.635L153.941 50.2534C153.59 49.6554 153.269 49.0281 153.269 49.0281H153.239C153.239 49.0281 152.933 49.6554 152.582 50.2534L150.904 53.0395Z" fill="white"/>
</svg>

<svg viewBox="0 0 168 59" fill="none" xmlns="http://www.w3.org/2000/svg"><path d="M.76 30.819h5.61V13.818c0-1.746-.304-4.573-.304-4.573h.087s1.392 2.827 2.566 4.573l11.699 17h5.567V1.307h-5.567V18.35c0 1.745.305 4.572.305 4.572h-.087S19.2 20.095 18.07 18.35L6.37 1.306H.76v29.513zm30.919-14.965c0 8.688 6.61 15.463 15.96 15.463 9.35 0 15.961-6.775 15.961-15.463C63.6 7.416 56.99.807 47.64.807c-9.35 0-15.961 6.61-15.961 15.047zm5.784 0c0-5.736 4.262-10.142 10.176-10.142 5.915 0 10.177 4.406 10.177 10.143 0 5.985-4.262 10.558-10.177 10.558-5.914 0-10.176-4.573-10.176-10.559zm38.734 14.965h5.827L93.157 1.306H87.2l-6.871 19.246c-.565 1.704-1.174 4.323-1.174 4.323h-.087s-.61-2.62-1.174-4.323L71.108 1.306h-6.045l11.133 29.513zm20.929 0h5.61V1.306h-5.61v29.513zm11.298-14.881c0 8.687 6.262 15.38 15.96 15.38 5.523 0 9.481-2.204 12.134-4.78l-2.957-3.866c-2.349 2.203-5.654 3.74-8.959 3.74-6.698 0-10.394-5.029-10.394-10.557 0-5.446 3.566-10.143 10.35-10.143 3.001 0 6.263 1.33 8.437 3.118l2.697-3.99c-3.001-2.786-7.35-4.033-11.395-4.033-9.306 0-15.873 6.568-15.873 15.13zm32.913 14.881h5.611V18.432h14.134v12.387h5.566V1.306h-5.566v12.512h-14.134V1.306h-5.611v29.513z" fill="#fff"/><path d="M52.96 13.279h-.272c-.81 0-1.614-.003-2.424 0-.653.003-1.018.441-.685.817.16.177.419.243.72.243h2.656v1.403h-2.633c-.498 0-.863.223-.876.53-.013.3.356.53.867.53.787.004 1.57 0 2.357 0h.29c.004.067.013.118.013.172 0 .325-.01.652.004.977.005.132-.044.183-.253.18-.8-.01-1.601-.006-2.402-.003-.48 0-.77.16-.854.457-.07.255.21.54.587.58.125.015.25.018.378.018.77.003 1.544.003 2.313 0 .178 0 .222.035.213.156-.066.991-.653 1.814-1.73 2.481-1.498.929-3.25 1.157-5.185.806a5.707 5.707 0 01-2.424-1.064c-.854-.634-1.29-1.376-1.352-2.23-.009-.126.053-.15.222-.15a508 508 0 002.469.004c.249 0 .493-.015.676-.148.213-.153.302-.333.2-.538-.098-.195-.303-.318-.605-.354a2.656 2.656 0 00-.311-.015c-.81 0-1.615-.006-2.424.003-.205.003-.25-.042-.245-.171.014-.376.005-.752.005-1.142.093-.003.178-.012.267-.012.836 0 1.676.003 2.512-.003.596-.003.97-.334.805-.694-.102-.222-.418-.367-.827-.37-.832-.003-1.659 0-2.49 0h-.25v-1.397c.09-.003.174-.009.259-.009.845 0 1.69.003 2.534-.003.574-.006.943-.342.774-.694-.102-.213-.418-.363-.791-.363-.832-.003-1.66 0-2.49 0h-.281c.044-1.115.734-2.001 1.975-2.707 1.756-.992 4.247-1.03 5.954-.352 1.704.68 2.655 1.686 2.753 3.062zm-7.811 16.708h5.509v6.928h-5.509z" fill="#fff"/><path fill-rule="evenodd" clip-rule="evenodd" d="M.5 56.568a2.24 2.24 0 002.24 2.24h162.52a2.239 2.239 0 002.239-2.24V39.154a2.239 2.239 0 00-2.239-2.239H2.739A2.239 2.239 0 00.5 39.154v17.414zm78.523-3.353c-3.28 0-5.6-2.378-5.6-5.427 0-2.96 2.32-5.28 5.6-5.28 3.282 0 5.601 2.32 5.601 5.28 0 3.049-2.32 5.427-5.6 5.427zm0-8.986c-2.075 0-3.57 1.546-3.57 3.56 0 2.1 1.495 3.704 3.57 3.704 2.076 0 3.572-1.604 3.572-3.705 0-2.013-1.496-3.559-3.572-3.559zm-65.162 8.81h-3.693V42.683h3.693c3.342 0 5.525 1.896 5.525 5.164 0 3.267-2.183 5.192-5.525 5.192zm-1.724-8.737v7.118h1.617c2.198 0 3.602-1.24 3.602-3.573 0-2.305-1.435-3.545-3.602-3.545h-1.617zm17.845 8.737h-6.73V42.683h6.486v1.62H25.22v2.712h3.648v1.62H25.22v2.785h4.762v1.62zm3.775 0h6.73V51.42h-4.762v-2.786h3.648v-1.619h-3.648v-2.713h4.518v-1.619h-6.486v10.356zm12.474 0h-1.97V42.683h4.182c2.03 0 3.45 1.356 3.45 3.37 0 2.012-1.42 3.413-3.45 3.413h-2.212v3.573zm0-8.737v3.53h1.846c1.145 0 1.816-.7 1.816-1.78 0-1.064-.671-1.75-1.785-1.75H46.23zm14.496 8.737h1.968v-4.346h4.96v4.346h1.954V42.683h-1.954v4.39h-4.96v-4.39h-1.968v10.356zm27.595-3.72c0 2.32 1.755 3.895 4.38 3.895 2.61 0 4.349-1.575 4.349-3.894v-6.637h-1.969v6.622c0 1.4-.946 2.188-2.396 2.188s-2.396-.787-2.396-2.188v-6.622h-1.969v6.637zm15.986 3.895c-1.343 0-2.731-.48-3.708-1.414l1.068-1.415c.641.554 1.679 1.094 2.686 1.094.977 0 1.587-.482 1.587-1.182 0-.864-.972-1.27-2.063-1.726-1.397-.584-2.988-1.249-2.988-3.058 0-1.824 1.587-3.005 3.693-3.005 1.129 0 2.32.365 3.174 1.108l-.87 1.532c-.595-.51-1.526-.904-2.38-.904-.992 0-1.649.467-1.649 1.181 0 .834.948 1.214 2.023 1.645 1.406.563 3.029 1.213 3.029 3.081 0 1.678-1.282 3.063-3.602 3.063zm7.396-.175h6.731V51.42h-4.762v-2.786h3.648v-1.619h-3.648v-2.713h4.517v-1.619h-6.486v10.356zm19.082.175c-1.343 0-2.731-.48-3.708-1.414l1.068-1.415c.641.554 1.679 1.094 2.686 1.094.977 0 1.587-.482 1.587-1.182 0-.864-.972-1.27-2.063-1.726-1.397-.584-2.988-1.249-2.988-3.058 0-1.824 1.587-3.005 3.693-3.005 1.129 0 2.32.365 3.174 1.108l-.869 1.532c-.596-.51-1.527-.904-2.381-.904-.992 0-1.648.467-1.648 1.181 0 .834.948 1.214 2.022 1.645 1.406.563 3.029 1.213 3.029 3.081 0 1.678-1.282 3.063-3.602 3.063zm6.102-.175h2.014l.916-2.654h3.8l.931 2.654h2.015l-3.8-10.356h-2.076l-3.8 10.356zm3.418-4.186l.977-2.771c.183-.584.427-1.605.427-1.605h.031s.244 1.021.427 1.605l.962 2.771h-2.824zm10.598 4.186h-2.183l3.358-5.25-3.236-5.106h2.244l1.495 2.538c.336.598.672 1.27.672 1.27h.03s.306-.657.672-1.27l1.511-2.538h2.243l-3.25 5.105 3.372 5.252h-2.197l-1.694-2.787c-.351-.598-.672-1.225-.672-1.225h-.03s-.306.627-.657 1.225l-1.678 2.786z" fill="#fff"/></svg>
